X:250
T:Mulhaire's
Z: id:dc-reel-230
M:C
L:1/8
K:D Major
AG|F2AF DFAF|G2BG DGBd|c2Ac eAce|dcde fdAG|!
F2AF DFAF|GBB2 dBB2|Acef gecd|e2dc d2:|!
fg|a2fd adfd|adfd edBd|e3f gfga|bee2 begb|!
a2fd adfd|adfd edBA|FAA2 GBdB|AFEF D2:|!